X: 19290
T: J. B. Milne
R: polka
M: 2/4
K: Amajor
cd|efed c2 A2|E2 A2 c4|cedc B2 A2|d4 d2 Bc|
dedc B2 G2|E2 G2 B4|BdcB A2 B2|c4 c2 cd|
efed c2 A2|E2 A2 c4|cedc B2 A2|f4 f2 fg|
af^d=c A2 ag|fecA E2 gf|e/f/e^de f2 g2|a4 a2 cd|
e2 c2 f2 c2|e2 c2 f2 c2|e2 ^de fe=dc|d4 d2 Bc|
d2 B2 e2 B2|d2 B2 e2 B2|d2 cd edcB|c4 c2 cd|
e2 c2 f2 c2|e2 c2 f2 c2|a2 ga baga|f4 f2 fg|
abag fagf|fecA E2 gf|e/f/e^de f2 g2|a4 a2||

